!!!!SEGMENT: pl-wnifc--493-n--001-003_oginski-michal-kleofas--16-polonaises-3-polonaise-in-b.krn
!!!cenid: 18xx:3862
!!!COM: Ogiński, Michał Kleofas
!!!COM-rismID: pe30002379
!!!CDT: 1765/09/25-1833/10/15
!!!CNT:
!!!GTL: 16 Polonaises
!!!OTL: 3. [Polonaise in B]
!!!OMV: 003
!!!PDT: 1864
!!!AGN:
!!!YEC: Copyright 2022 Narodowy Instytut Fryderyka Chopina (https://polishscores.org)
!!!YEM: License CC-BY-4.0 (https://creativecommons.org/licenses/by/4.0)
!!!SMS-siglum: PL-Wnifc
!!!SMS-shelfmark: 493/n
!!!SMS-shelfwork: 001-003 G
!!!SMS-variant:
!!!SMS-altvar:
!!!NIFC-rismSourceID: 1001157350
!!!NIFC-rismChildID: 1001157354
!!!NIFC-islandoraID: nifc:212371
!!!URL-pdf-islandora: https://repozytorium.nifc.pl/islandora/object/nifc%3A212371/datastream/PDF/view
!!!URL-scan: https://polish.musicsources.pl/pl/lokalizacje/galeria/druki-muzyczne/16843 @EN{Scan on Polish Music Sources Website} @PL{Skany w portalu Dziedzictwo Muzyki Polskiej w otwartym dostępie}
!!!IIIF:
!!!ONB-nifc: UWAGA: w zbiorze znajduje się 14 Polonezów z Triami, pliki są numerowane jak w źródle.
!!!AIN: 1 piano
!!!key: B-
!!!OMD:
!!!OMD-mod: Moderato
**kern	**kern	**dynam
*part1	*part1	*
*staff2	*staff1	*
*I"Piano.	*I"Piano.	*
*I'	*I'	*
*Ipiano	*Ipiano	*
*ICklav	*ICklav	*
*IGsolo	*IGsolo	*
*mI"Pianoforte	*mI"Pianoforte	*
*mI'pf	*mI'pf	*
*>[A,B,A,B,C,A,B,D,D,E,E,A,B,A,B]	*>[A,B,A,B,C,A,B,D,D,E,E,A,B,A,B]	*
*clefF4	*clefG2	*
*k[b-e-]	*k[b-e-]	*
*B-:	*B-:	*
*M3/4	*M3/4	*
=1	=1	=1
*>A	*>A	*
!	!LO:TX:a:t=Moderato.:mod=	!
8.B-\L	8.f/L 8.dd	p
(16B-\Jk	(16f/Jk 16dd	.
4A\)	4f/) 4cc	.
8.r	8.r	.
16F#X\	16a/	.
=2	=2	=2
8.G\L	8.d/L 8.b-	.
(16G\Jk	16d/Jk (>16b-	.
4Fn\)	4d/ 4a)	.
4r	16r	.
.	(16cc\LL	.
.	16b-\	.
.	16a\JJ)	.
=3	=3	=3
*	*^	*
8E-'\L	8g'/L	2g\	<
8D'\	(16cc/L	.	.
.	16dd/JJ)	.	.
8C'\	8ee-'/L	.	.
8D'\	8dd'/	.	.
8E-'\	8g'>/ 8cc	8ryy	.
8En'\J	8g'>/J 8b-	8ryy	[[
*	*v	*v	*
!!LO:LB:g=original
=4	=4	=4
8F\	8f/ 8a	.
4FF^/ 4AA 4C 4F	4f^\ 4a 4ff	fp
(8F\L 8A	(8ff\L	.
8G\ 8B-	8een\	.
*rj	*rj	*
8A\J) 8c	8ee-X\J)	.
!LO:TX:t=[segno]	!LO:TX:t=[segno]	!
=5||	=5||	=5||
*>B	*>B	*
8.B-\L 8.d	8.f/L 8.dd	f
16B-\Jk 16d	16f/Jk 16dd	.
4A\ 4c	(16f\LL 16cc	<
.	16ff\	.
.	16een\	.
.	16gg\JJ	.
4r	16ff\LL	.
.	16ee-X\	.
.	16dd\	.
.	16cc\JJ)	[[
=6	=6	=6
8.G\L 8.B-	(16b-\LL	.
.	16dd\)	.
.	16cc'\	.
16G\Jk 16B-	16b-'\JJ	.
4F\ 4A	(16a\LL	>
.	16dd\	.
.	16cc#X\	.
.	16ee-X\JJ	.
4r	16dd\LL	.
.	16ccn\	.
.	16b-\	.
.	16a\JJ)	]
!!LO:LB:g=original
=7	=7	=7
8r	16g'\LL	f
.	(16bn\	.
8E-\ 8G 8c	16cc\	.
.	16b\JJ	.
8E-\L 8G 8c	16dd\LL	.
.	16cc\	.
8E-\ 8G 8c	16ee-\	.
.	16dd\JJ	.
8E-\ 8G 8c	16ff\LL	.
.	16ee-\	.
8E-\J 8G 8c	16dd\	.
.	16cc\JJ)	.
=8	=8	=8
8F\L 8B- 8d	(16ff\LL	.
.	16dd\	.
8F\J 8A 8e-	16ee-\)	.
.	16cc'\JJ	.
8r	(4e-/ 4cc	.
8FF/L	.	.
8BB-/J	8d/) 8b-	.
!	!LO:TX:b:i:t=Fine.:mod=	!
8r	8r	.
!!LO:TX:a:B:rj:t=:mod=Fine
=9:|!	=9:|!	=9:|!
*>C	*>C	*
(8c\L 8e-	8ff'\L	p
8F\J)	(32gg\LL	.
.	32ff\	.
.	32een\	.
.	32ff\JJJ)	.
(8c\L 8e-	4.aa\	>
8F\	.	.
8c\ 8e-	.	.
8F\J)	8ff\	]]
!!LO:LB:g=original
=10	=10	=10
.	8qeen/	.
(8B-\L 8d	8ff'\L	.
8F\J)	(32gg\LL	.
.	32ff\	.
.	32ee-X\	.
.	32ff\JJJ)	.
(8B-\L 8d	4.bb-\	.
8F\	.	.
8B-\ 8d	.	.
8F\J)	8ff\	.
=11	=11	=11
8A'\L	8f'/L 8ee-	.
8B-'\J	8f'/ 8dd	.
8E-'\L 8G 8c	8g'/ 8cc	.
8En'\J 8G 8c	8g'/ 8b-	.
8F'\L 8c	8f'/ 8a	.
8G'\J 8c	8en'/J 8b-	.
=12	=12	=12
*	*^	*
4F\ 4c	(16b-/LL	4f\	>
.	16a/	.	.
.	16g/	.	.
.	16f/JJ	.	.
4r	16en/LL	2ryy	.
.	16f/	.	.
.	16g/	.	.
.	16a/JJ	.	.
!LO:TX:a:i:t=Dal Segno \n al Fine.:mod=	!	!	!
4r	16b-\LL	.	.
.	16bn\	.	.
.	16cc\	.	.
.	16cc#X\JJ)	.	]
*	*v	*v	*
!!LO:PB:g=original
!LO:TX:b:t=[segno]	!LO:TX:a:t=[segno]	!
!LO:MO:mod==13!|:	!LO:MO:mod==13!|:	!LO:MO:mod==13!|:
!!LO:TX:a:B:rj:t=:mod=Dal Segno al Fine
=13||	=13||	=13||
*>D	*>D	*
!	!LO:TX:a:t=Trio.	!
(8B-\L 8d	8f/L	p
8F\J)	(32g/LL	.
.	32f/	.
.	32en/	.
.	32f/JJJ)	.
(8B-\L 8d	8.b-^/L	.
8F\	.	.
.	16f/Jk	.
8B-\ 8d	8.dd^/L	.
8F\J)	.	.
.	16f/Jk	.
=14	=14	=14
*tremolo	*	*
(8A\L 8c 8e-	(8.fsSSs/L	.
8F\	.	.
.	16g/Jk)	.
8A\ 8c 8e-	2f/	.
8F\	.	.
8A\ 8c 8e-	.	.
8F\J)	.	.
*Xtremolo	*	*
=15	=15	=15
(8A\L 8e-	(16f/LL	<
.	16f#X/	.
8F\	16g/	.
.	16a-X/JJ	.
8A\ 8e-	16an/LL	.
.	16b-/	.
8F\	16bn/	.
.	16cc/JJ	.
8A\ 8e-	16b-X/LL	.
.	16a/	.
8F\J)	16g/	.
.	16fn/JJ)	[[
!!LO:LB:g=original
=16	=16	=16
8B-\L 8d	(16b-\LL	>
.	16a\)	.
8F\J 8A 8e-	16dd'\	.
.	16cc'\JJ	.
8r	(4cc\	]
8F\L 8A 8e-	.	.
8B-\J 8d	8b-\)	.
8r	8r	.
=17:|!|:	=17:|!|:	=17:|!|:
*>E	*>E	*
4F^\ 4c	8f\L 8ff	f
.	16f'\L 16ff	.
.	16f'\JJ 16ff	.
4B-^\ 4d	8f\L 8ff	.
.	16f'\L 16ff	.
.	16f'\JJ 16ff	.
4c^\ 4e-	8f\L 8ff	.
.	16f'\L 16ff	.
.	16f'\JJ 16ff	.
=18	=18	=18
4B-^\ 4d	16r	.
.	(16ff\LL	>
.	16gg\	.
.	16aa\JJ	.
4r	16bb-\LL	.
.	16aa\	.
.	16gg\	.
.	16ff\JJ	.
4r	16ee-\LL	.
.	16dd\)	.
.	16cc'\	.
.	16b-'\JJ	]]
!!LO:LB:g=original
=19	=19	=19
4F^\ 4c	16f'\LL	f
.	(16ff\	.
.	16cc\	.
.	16a\JJ)	.
4B-^\ 4d	16f'\LL	.
.	(16ff\	.
.	16dd\	.
.	16b-\JJ)	.
4c^\ 4e-	16f'\LL	.
.	(16ff\	.
.	16ee-\	.
.	16cc\JJ)	.
=20	=20	=20
8B-\ 8d	(16ff\LL	>
.	16dd\	.
8r	16cc\)	.
.	16bn'\JJ	.
(8E-\L	(16dd\LL	.
.	16cc\	.
8En\J)	16ee-\)	.
.	16cc'\JJ	.
8F/L	(8b-X/L	.
8FF/J	8a/J)	]]
=21	=21	=21
8B-\L 8d	8f/L	p
8F\J	(32g/LL	.
.	32f/	.
.	32en/	.
.	32f/JJJ)	.
(8B-\L 8d	8.b-^/L	.
8F\	.	.
.	16f/Jk	.
8B-\ 8d	8.dd^/L	.
8F\J)	.	.
.	16f/Jk	.
!!LO:LB:g=original
=22	=22	=22
(8A\L 8c 8e-	(8.fsSSs/L	.
8F\J)	.	.
.	16g/Jk)	.
(8A\L 8c 8e-	2f/	.
8F\	.	.
8A\ 8c 8e-	.	.
8F\J)	.	.
=23	=23	=23
(8A\L 8e-	(16f/LL	<
.	16f#X/	.
8F\J)	16g/	.
.	16a-X/JJ	.
(8A\L 8e-	16an/LL	.
.	16b-/	.
8F\	16bn/	.
.	16cc/JJ	.
8A\ 8e-	16b-X/LL	.
.	16a/	.
8F\J)	16g/	.
.	16fn/JJ)	[[
=24	=24	=24
8B-\L 8d	(16b-^\LL	>
.	16a\)	.
8F\J 8A 8e-	16dd'\	.
.	16cc'\JJ	.
!LO:TX:b:i:t=Da Capo al Fine.:mod=	!	!
8r	(4cc\	]
8F\L 8A 8e-	.	.
8B-\J 8d	8b-\)	.
8r	8r	.
!!LO:TX:a:B:t=:mod=Da Capo al Fine
=:|!	=:|!	=:|!
*-	*-	*-
!!!RDF**kern: > = above
!!!RDF**kern: < = below
!!!system-decoration: {(s1,s2)}
!!!filter-modern: sic -sq | shed -k -e "s/LO:N:vis/LO:n:vis:/L" | shed -e "s/TX(.*):t=P:/tx$1:t=P:/LG" | shed -e "s/:rj/:RJ/L" | shed -k -e "s/([^a-gA-Gn#X-])[<>]/$1/g" | shed -e "s/LO:DY:(a|b|rj)/LO:dy:$1/L" | shed -e "s/-//B" | autostem -r | modori -m
!!!ENC: Berenika Jozajtis
!!!END: 2022-07-24
!!!EED: Urszula Świątek
!!!EEV: 2022-08-22
!!!ENC-modern: Andrzej Borzym
!!!END-modern: 2022-08-30
